icons/category/icon_balance-transfer_m_black.svg

<?xml version="1.0" encoding="UTF-8"?>
<svg width="20px" height="24px" viewBox="0 0 20 24" version="1.1" xmlns="http://www.w3.org/2000/svg" xmlns:xlink="http://www.w3.org/1999/xlink">
    <!-- Generator: Sketch 50.2 (55047) - http://www.bohemiancoding.com/sketch -->
    <title>icon_balance-transfer_m_black</title>
    <desc>Created with Sketch.</desc>
    <defs></defs>
    <g id="Page-1" stroke="none" stroke-width="1" fill="none" fill-rule="evenodd">
        <g id="icon_balance-transfer_m_black" transform="translate(-2.000000, 0.000000)">
            <rect id="Rectangle-path" x="0" y="0" width="24" height="24"></rect>
            <g id="Group" opacity="0.3" transform="translate(3.000000, 4.000000)" fill="#0B1F35" fill-rule="nonzero">
                <rect id="Rectangle-path" x="3" y="5" width="4" height="2"></rect>
                <rect id="Rectangle-path" x="0" y="0" width="18" height="2"></rect>
            </g>
            <path d="M20,0 L4,0 C2.8954305,-6.76353751e-17 2,0.8954305 2,2 L2,13 C2,14.1045695 2.8954305,15 4,15 L10.38,15 L11,14 L4,14 C3.44771525,14 3,13.5522847 3,13 L3,2 C3,1.44771525 3.44771525,1 4,1 L20,1 C20.5522847,1 21,1.44771525 21,2 L21,13 C21,13.5522847 20.5522847,14 20,14 L13.6,14 L16.52,8.93 C16.6255948,8.69635419 16.5373406,8.42069936 16.3156815,8.2918278 C16.0940224,8.16295624 15.8108046,8.22263893 15.66,8.43 L9.39,19.29 C9.27200253,18.846 8.98958359,18.4634832 8.6,18.22 C8.17821555,17.9885852 7.68165442,17.9346111 7.22,18.07 C6.30153016,18.3786987 5.53820168,19.0309325 5.09,19.89 C4.19,21.45 4.33,23.16 5.4,23.78 C5.65845281,23.9282928 5.95205664,24.0042844 6.25,24 C6.42900318,24.0004898 6.60726195,23.9769462 6.78,23.93 C7.69691386,23.6185612 8.45933456,22.9671031 8.91,22.11 L12,16.76 L15.09,22.11 C15.5438774,22.9645325 16.3051242,23.6149876 17.22,23.93 C17.3962211,23.9765588 17.5777321,24.000088 17.76,24 C18.0548029,24.0044722 18.3452367,23.9284062 18.6,23.78 C19.67,23.16 19.81,21.45 18.92,19.89 C18.4661226,19.0354675 17.7048758,18.3850124 16.79,18.07 C16.3283456,17.9346111 15.8317844,17.9885852 15.41,18.22 C15.0200133,18.4606973 14.7345322,18.8389597 14.61,19.28 L12.61,15.76 L13,15 L20,15 C21.1045695,15 22,14.1045695 22,13 L22,2 C22,0.8954305 21.1045695,6.76353751e-17 20,0 Z M15.91,19.09 C16.0127044,19.0288366 16.1304857,18.9976592 16.25,19 C16.3428715,18.9868687 16.4371285,18.9868687 16.53,19 C17.1889344,19.2419604 17.7319425,19.7242374 18.05,20.35 C18.7,21.48 18.6,22.58 18.1,22.87 C17.9099285,22.9743477 17.6843367,22.9925406 17.48,22.92 C16.8428539,22.6793683 16.3162094,22.2132167 16,21.61 C15.31,20.48 15.42,19.37 15.91,19.09 Z M6.52,23 C6.31897853,23.0721415 6.09659076,23.053913 5.91,22.95 C5.41,22.66 5.31,21.56 5.91,20.43 C6.22786669,19.7676064 6.79088211,19.2547961 7.48,19 C7.56946415,18.986111 7.66053585,18.986111 7.75,19 C7.86951434,18.9976592 7.98729559,19.0288366 8.09,19.09 C8.59,19.37 8.69,20.48 8.09,21.61 C7.76396062,22.257276 7.20201381,22.7547958 6.52,23 Z" id="Shape" fill="#0B1F35" fill-rule="nonzero"></path>
        </g>
    </g>
</svg>

<svg xmlns="http://www.w3.org/2000/svg" viewBox="0 0 24 24"><defs><style>.cls-1{fill:none;}.cls-2{opacity:0.3;}.cls-3{fill:#0b1f35;}</style></defs><title>icon_balance-transfer_m_black</title><g id="Layer_2" data-name="Layer 2"><rect class="cls-1" width="24" height="24"/><g class="cls-2"><rect class="cls-3" x="6" y="9" width="4" height="2"/><rect class="cls-3" x="3" y="4" width="18" height="2"/></g><path class="cls-3" d="M20,0H4A2,2,0,0,0,2,2V13a2,2,0,0,0,2,2h6.38L11,14H4a1,1,0,0,1-1-1V2A1,1,0,0,1,4,1H20a1,1,0,0,1,1,1V13a1,1,0,0,1-1,1H13.6l2.92-5.07a.5.5,0,0,0-.86-.5L9.39,19.29a1.81,1.81,0,0,0-.79-1.07,1.81,1.81,0,0,0-1.38-.15,3.75,3.75,0,0,0-2.13,1.82c-.9,1.56-.76,3.27.31,3.89a1.66,1.66,0,0,0,.85.22,2,2,0,0,0,.53-.07,3.78,3.78,0,0,0,2.13-1.82h0L12,16.76l3.09,5.35h0a3.82,3.82,0,0,0,2.13,1.82,2.11,2.11,0,0,0,.54.07,1.62,1.62,0,0,0,.84-.22c1.07-.62,1.21-2.33.32-3.89a3.82,3.82,0,0,0-2.13-1.82,1.81,1.81,0,0,0-1.38.15,1.83,1.83,0,0,0-.8,1.06l-2-3.52L13,15h7a2,2,0,0,0,2-2V2A2,2,0,0,0,20,0ZM15.91,19.09a.64.64,0,0,1,.34-.09,1,1,0,0,1,.28,0,2.78,2.78,0,0,1,1.52,1.35c.65,1.13.55,2.23.05,2.52a.76.76,0,0,1-.62.05A2.78,2.78,0,0,1,16,21.61C15.31,20.48,15.42,19.37,15.91,19.09ZM6.52,23a.74.74,0,0,1-.61-.05c-.5-.29-.6-1.39,0-2.52A2.83,2.83,0,0,1,7.48,19a.88.88,0,0,1,.27,0,.64.64,0,0,1,.34.09c.5.28.6,1.39,0,2.52A2.83,2.83,0,0,1,6.52,23Z"/></g></svg>
